!!!OTL: ES LEBE HOCH DER STAND DER EHREN
!!!ARE: Europa, Mitteleuropa, Deutschland, Hessen, Darmstadt
!!!SCT: E1353
!!!YEM: Copyright 1995, estate of Helmut Schaffrath.
**kern
*ICvox
*Ivox
*M4/4
*k[b-e-]
*B-:
{8B-
8B-
8d
=1
4f
4f
4g
4a
=2
2b-
8f}
{8f
8d
8e-
=3
4f
4f
4b-
4dd
=4
4cc
2r}
{8.cc
16b-
=5
4a
8a
8b-
4cc
8.cc
16b-
=6
4.a
8b-
4cc}
{8.a
16b-
=7
4cc
4f
4a
4g
=8
4f
2r}
{4f
=9
4b-
8b-
8b-
8dd
8cc
8b-
8g
=10
2f
4d}
{8.g
16f
=11
4f
8e-
8d
4e-
8.f
16e-
=12
4d
4.r}
{8f
8f
8f
=13
4b-
4.r
8b-
8b-
8a
=14
4g
4.r}
{8cc
8cc
8cc
=15
4dd
4dd
4ee-
4ff
=16
4dd
2r}
{4f
=17
4b-
8b-
8b-
8dd
8cc
8b-
8g
=18
2f
4d}
{8.g
16f
=19
4f
8e-
8d
4e-
8.f
16e-
=20
4d
4.r}
{8f
8f
8f
=21
4b-
4.r
8b-
8b-
8a
=22
4g
4.r}
{8cc
8cc
8cc
=23
4dd
4dd
4ee-
4ff
=24
4dd
4.r}
==
!!!AGN: Staende -, Soldaten -, Kriegs - Lied
!!!ONB: ESAC (Essen Associative Code) Database: ERK3
!!!AMT: simple quadruple
!!!AIN: vox
!!!EED: Helmut Schaffrath
!!!EEV: 1.0
*-
